svg/user/user_x_fill.svg

<?xml version="1.0" encoding="UTF-8"?>
<svg width="24px" height="24px" viewBox="0 0 24 24" version="1.1" xmlns="http://www.w3.org/2000/svg" xmlns:xlink="http://www.w3.org/1999/xlink">
    <title>user_x_fill</title>
    <g id="Icon" stroke="none" stroke-width="1" fill="none" fill-rule="evenodd">
        <g id="User" transform="translate(-528.000000, -144.000000)">
            <g id="user_x_fill" transform="translate(528.000000, 144.000000)">
                <path d="M24,0 L24,24 L0,24 L0,0 L24,0 Z M12.5935,23.2578 L12.5819,23.2595 L12.5109,23.295 L12.4919,23.2987 L12.4767,23.295 L12.4057,23.2595 C12.3958,23.2564 12.387,23.259 12.3821,23.2649 L12.378,23.2758 L12.3609,23.7031 L12.3659,23.7235 L12.3769,23.7357 L12.4805,23.8097 L12.4953,23.8136 L12.5071,23.8097 L12.6107,23.7357 L12.6233,23.7197 L12.6267,23.7031 L12.6096,23.2758 C12.6076,23.2657 12.601,23.2593 12.5935,23.2578 Z M12.8584,23.1453 L12.8445,23.1473 L12.6598,23.2397 L12.6499,23.2499 L12.6472,23.2611 L12.6651,23.6906 L12.6699,23.7034 L12.6784,23.7105 L12.8793,23.8032 C12.8914,23.8069 12.9022,23.803 12.9078,23.7952 L12.9118,23.7812 L12.8777,23.1665 C12.8753,23.1546 12.8674,23.147 12.8584,23.1453 Z M12.143,23.1473 C12.1332,23.1424 12.1222,23.1453 12.1156,23.1526 L12.1099,23.1665 L12.0758,23.7812 C12.0751,23.7927 12.0828,23.8019 12.0926,23.8046 L12.1083,23.8032 L12.3092,23.7105 L12.3186,23.7024 L12.3225,23.6906 L12.3404,23.2611 L12.3372,23.2485 L12.3278,23.2397 L12.143,23.1473 Z" id="MingCute" fill-rule="nonzero"></path>
                <path d="M11,2 C8.23858,2 6,4.23858 6,7 C6,9.76142 8.23858,12 11,12 C13.7614,12 16,9.76142 16,7 C16,4.23858 13.7614,2 11,2 Z M11,13 C8.60453,13 6.42467,13.6937 4.82227,14.6715 C4.02143,15.1602 3.33788,15.7363 2.84397,16.3615 C2.35805,16.9767 2,17.713 2,18.5 C2,19.3449 2.41114,20.0111 3.00266,20.4859 C3.56324,20.9359 4.30182,21.2336 5.08716,21.4416 C6.66466,21.8593 8.77101,22 11,22 C11.2305,22 11.4591,21.9985 11.6854,21.9953 C12.0257,21.9906 12.3403,21.8131 12.5203,21.5241 C12.7002,21.2352 12.7209,20.8746 12.575,20.567 C12.2066,19.79 12,18.9205 12,18 C12,16.7478 12.3825,15.588 13.0369,14.6272 C13.2349,14.3365 13.2656,13.9633 13.1179,13.6442 C12.9702,13.325 12.6658,13.107 12.3161,13.0698 C11.887,13.0242 11.4475,13 11,13 Z M16.5859,15.1716 C16.1954,14.7811 15.5622,14.7811 15.1717,15.1716 C14.7812,15.5621 14.7812,16.1953 15.1717,16.5858 L16.5859,18 L15.1716,19.4143 C14.781,19.8048 14.781,20.438 15.1716,20.8285 C15.5621,21.2191 16.1952,21.2191 16.5858,20.8285 L18,19.4143 L19.4143,20.8285 C19.8048,21.2191 20.438,21.2191 20.8285,20.8285 C21.219,20.438 21.219,19.8049 20.8285,19.4143 L19.4143,18 L20.8284,16.5859 C21.2189,16.1954 21.2189,15.5622 20.8284,15.1717 C20.4379,14.7812 19.8047,14.7812 19.4142,15.1717 L18.0001,16.5858 L16.5859,15.1716 Z" id="形状" fill="#09244B"></path>
            </g>
        </g>
    </g>
</svg>

<svg xmlns="http://www.w3.org/2000/svg" width="24" height="24"><g fill="none" fill-rule="evenodd"><path d="M24 0v24H0V0h24ZM12.594 23.258l-.012.002-.071.035-.02.004-.014-.004-.071-.036c-.01-.003-.019 0-.024.006l-.004.01-.017.428.005.02.01.013.104.074.015.004.012-.004.104-.074.012-.016.004-.017-.017-.427c-.002-.01-.009-.017-.016-.018Zm.264-.113-.014.002-.184.093-.01.01-.003.011.018.43.005.012.008.008.201.092c.012.004.023 0 .029-.008l.004-.014-.034-.614c-.003-.012-.01-.02-.02-.022Zm-.715.002a.023.023 0 0 0-.027.006l-.006.014-.034.614c0 .012.007.02.017.024l.015-.002.201-.093.01-.008.003-.011.018-.43-.003-.012-.01-.01-.184-.092Z"/><path fill="#09244B" d="M11 2a5 5 0 1 0 0 10 5 5 0 0 0 0-10Zm0 11c-2.395 0-4.575.694-6.178 1.672-.8.488-1.484 1.064-1.978 1.69C2.358 16.976 2 17.713 2 18.5c0 .845.411 1.511 1.003 1.986.56.45 1.299.748 2.084.956C6.665 21.859 8.771 22 11 22c.23 0 .46-.002.685-.005a1 1 0 0 0 .89-1.428A5.973 5.973 0 0 1 12 18c0-1.252.383-2.412 1.037-3.373a1 1 0 0 0-.72-1.557c-.43-.046-.87-.07-1.317-.07Zm5.586 2.172a1 1 0 0 0-1.414 1.414L16.586 18l-1.414 1.414a1 1 0 1 0 1.414 1.414L18 19.414l1.414 1.414a1 1 0 1 0 1.414-1.414L19.414 18l1.414-1.414a1 1 0 0 0-1.414-1.414L18 16.586l-1.414-1.414Z"/></g></svg>
